!!!OTL: Einquartierungs-Erlebnis (155a), S. 338
!!!id: T0324
**kern
*clefG2
*k[f#]
*G:
{8d
=1
8b
8a
8g
8g
8a
8b
=2
4a
8d
4d}
=3
{8d
=4
8cc
8b
8a
16ee
16ee
8dd
8cc
=5
4b
8d
4d}
=6
{8d
=7
4d
8d
8d
8g
8ee
=8
4.dd
8dd
8cc}
=9
{8dd
=10
4cc
8cc
8cc
8b
8a
=11
4.b
8b
8a}
=12
{8g
=13
4f#
8a
4cc
8ee
=14
4.dd
8dd
8b}
=15
{8dd
=16
4cc
8d
4b
8a
=17
4.g}
4r
==
*-
!!!minrhy: 16
!!!meters: 6/8 ]  ZZ[6
!!!cut: Einquartierungs-Erlebnis (155a), S. 338
!!!reg: Luxemburg
!!!trd: Singendes Volk, Esch-Alzette 1937, posth.
!!!rhy1: X_  X_X_X_X_X_X_  X__X_X__
!!!rhy2: X_  X_X_X_XXX_X_  X__X_X__
!!!key: T0324  16  G 6/8 ]  ZZ[6
!!!mod: HEPTATONIK IONISCH]  AMBITUS[9
!!!kad: -5-54231
!!!akz: 312-5_463-5_-5-555_4433_-7455_431_
!!!fot: 'a__b__c__d__e__f__
!!!for: 'a__b__c__c__d__dw_
!!!fok: '^__^__/__\__^a_\__
!! PHRAS[AUFTAKTIG]
!!!fkt: historische, Kriegs- und Soldatenlieder, Liebeslied
!!!bem1: StraPen, fff Witry, 6.12.1932,
!!!bem2: (155b)- Blascheid, hhh Johann Hitting
!! THILL, Mathias:
!! PR[32] 2K[5] 2G[5] 3K[8] 3G[3] 4A[5] 4Ü[0] 5A[0] 6K[0] 6G[3]
!! 7K[0] 7G[0] 8A[0] MEHR[0] SI[29] ABS[75] SR[11] SP[19]
!! ST[16] 2k[8] 2g[16] 3k[8] 3g[3] 4d[4] 4ü[0] 5d[0] 6k[0] 6g[0]
!! 7k[0] 7g[0] 8d[0] mehr[0] si[39] dm[-10] sr[24] sp[15]
!! 1F[62] 2F[23] 3F[10] 4F[0] LF[0] 2P[5] 3P[0] 4P[0] TRI[0] DF[4] AB[78]
!! TF[0] U3K[0] U3[0] U4[0] U4Ü[0] U5[5] U6K[0] U6[0] U7K[0] U7[0]
!! N1[18] N2K[0] N2[13] N3K[0] N3[16] N4[13] N4Ü[0] N5[11] N6K[0] N6[13]
!!!n7k: 0] N7[3] O1[8] O2K[0] O2[0] O3K[0] O3[0] HÖ[0
